X: 14015
T: CHRIS SALMON'S
C: Bob McQuillen Dec.'08
B: Bob's Note Book 14 #15
%R: reel
%D:2008
Z: 2020 John Chambers <jc:trillian.mit.edu>
M: C
L: 1/8
K: G	% and D
DE \
| G2FG EDGA | BdBG AGBA | GBdg edge | dBGB A2BA |
| G2FG EDGA | BdBG ABGA | BGBd eage | dBAB G2  :| [K:D]
|: FG \
| AFAd fdAF | DFAB A2cd | BGBd Adfd | edcB AGFG |
| AFAd fdAF | DFAB Adfa | g2eg fAdg | fedc d2  :|
%%begintext align
%% Chris Salmon is
%% another fan of the Monday Night in Nelson
%% Dance. I don't think he ever misses it. It's
%% always nice to see you on the floor, Chris -
%% keep those feet flying!!
%%endtext

%%sep 1 1 500

%%sep 1 1 500

